img/icons/categories/01.svg

<svg width="57" height="60" viewBox="0 0 57 60" fill="none" xmlns="http://www.w3.org/2000/svg">
<path d="M43.8838 53.7042H13.0765C13.0026 53.7042 12.8549 53.7042 12.781 53.6283C4.8021 48.1669 0 39.0645 0 29.2036C0 13.1226 12.781 0 28.4432 0C44.1794 0 56.8865 13.1226 56.8865 29.2036C56.8865 39.0645 52.0844 48.1669 44.1055 53.6283C44.1055 53.7042 44.0316 53.7042 43.8838 53.7042ZM13.2243 52.7181H43.81C51.4933 47.4842 56.0738 38.6852 56.0738 29.2036C56.0738 13.6536 43.7361 0.986096 28.5171 0.986096C13.2981 0.986096 0.960421 13.6536 0.960421 29.2036C0.960421 38.6852 5.54089 47.4842 13.2243 52.7181Z" fill="#040926"/>
<path d="M45.7307 48.9259H11.2294C10.9339 48.9259 10.7861 48.6984 10.7861 48.3949V35.424C10.7861 35.1965 10.9339 35.0448 11.0816 34.9689L22.9022 30.1901C23.05 30.1143 23.2716 30.1901 23.4194 30.266L28.2953 35.0447L33.5407 30.1901C33.6885 30.0384 33.8362 30.0384 34.0579 30.1143L45.8784 34.893C46.0262 34.9689 46.1739 35.1206 46.1739 35.3482V48.3191C46.1739 48.6984 45.9523 48.9259 45.7307 48.9259ZM11.7466 47.9398H45.2135V35.7274L33.9101 31.1762L28.517 36.1067C28.2953 36.2584 28.0737 36.2584 27.8521 36.1067L22.9022 31.1762L11.6727 35.7274V47.9398H11.7466Z" fill="#040926"/>
<path d="M39.8943 48.926H17.0658C16.7703 48.926 16.6226 48.6984 16.6226 48.395V40.2028C16.6226 39.8994 16.8442 39.6719 17.0658 39.6719C17.3613 39.6719 17.5091 39.8994 17.5091 40.2028V47.864H39.3771V40.2028C39.3771 39.8994 39.5988 39.6719 39.8204 39.6719C40.1159 39.6719 40.2637 39.8994 40.2637 40.2028V48.395C40.4114 48.6984 40.1898 48.926 39.8943 48.926Z" fill="#040926"/>
<path d="M34.2055 37.3952H22.7543C22.4588 37.3952 22.311 37.1677 22.311 36.8642V30.6443C22.311 30.3408 22.5327 30.1133 22.7543 30.1133C23.0498 30.1133 23.1976 30.3408 23.1976 30.6443V36.4091H33.6144V30.6443C33.6144 30.3408 33.8361 30.1133 34.0577 30.1133C34.3532 30.1133 34.501 30.3408 34.501 30.6443V36.8642C34.6487 37.1677 34.4271 37.3952 34.2055 37.3952Z" fill="#040926"/>
<path d="M30.2162 41.4158H26.8178C26.5223 41.4158 26.3745 41.1883 26.3745 40.8849V36.7888C26.3745 36.4854 26.5961 36.2578 26.8178 36.2578H30.2162C30.5117 36.2578 30.6595 36.4854 30.6595 36.7888V40.8849C30.6595 41.2641 30.4378 41.4158 30.2162 41.4158ZM27.2611 40.4297H29.699V37.3198H27.2611V40.4297Z" fill="#C47A2D"/>
<path d="M31.6199 48.9256H25.0447C24.8969 48.9256 24.7492 48.8497 24.6753 48.7739C24.6014 48.6222 24.5275 48.4705 24.6014 48.3188L26.3745 40.8851C26.4484 40.6576 26.5961 40.5059 26.8178 40.5059H30.2162C30.4378 40.5059 30.6594 40.6576 30.6594 40.8851L32.0631 48.3188C32.0631 48.4705 32.0631 48.6222 31.9893 48.698C31.8415 48.8497 31.7676 48.9256 31.6199 48.9256ZM25.6357 47.9395H31.0288L29.8468 41.492H27.1872L25.6357 47.9395Z" fill="#C47A2D"/>
<path d="M28.665 28.0658C23.7152 28.0658 19.6519 23.8939 19.6519 18.8117C19.6519 13.7296 23.7152 9.55762 28.665 9.55762C33.6149 9.55762 37.6782 13.7296 37.6782 18.8117C37.6782 23.9698 33.6149 28.0658 28.665 28.0658ZM28.665 10.5437C24.2323 10.5437 20.6123 14.2605 20.6123 18.8117C20.6123 23.3629 24.2323 27.0797 28.665 27.0797C33.0977 27.0797 36.7178 23.3629 36.7178 18.8117C36.7178 14.2605 33.0977 10.5437 28.665 10.5437Z" fill="#040926"/>
<path d="M35.0925 17.2948C32.8762 17.2948 30.7337 16.6121 29.1822 15.3984C28.9606 15.2467 28.9606 14.9433 29.1083 14.7158C29.2561 14.4882 29.5516 14.4882 29.7733 14.6399C31.5463 16.0053 34.2798 16.6121 36.7917 16.157C37.0872 16.0811 37.3089 16.3087 37.3827 16.5362C37.4566 16.8397 37.235 17.0672 37.0133 17.1431C36.3484 17.2189 35.7574 17.2948 35.0925 17.2948Z" fill="#040926"/>
<path d="M24.1582 17.1422C22.8284 17.1422 21.5725 16.9147 20.3904 16.4595C20.1688 16.3837 20.021 16.0803 20.0949 15.8527C20.1688 15.6251 20.4643 15.4734 20.6859 15.5493C21.7202 15.9286 22.9023 16.1561 24.0843 16.1561C27.9999 16.1561 31.2506 13.8805 31.2506 11.074C31.2506 10.7705 31.4722 10.543 31.6938 10.543C31.9893 10.543 32.1371 10.7705 32.1371 11.074C32.211 14.4115 28.5909 17.1422 24.1582 17.1422Z" fill="#040926"/>
<path d="M54.0051 57.1176H2.95499C2.65948 57.1176 2.51172 56.8901 2.51172 56.5866C2.51172 56.2832 2.73335 56.0557 2.95499 56.0557H54.0051C54.3006 56.0557 54.4483 56.2832 54.4483 56.5866C54.4483 56.8901 54.2267 57.1176 54.0051 57.1176Z" fill="#040926"/>
<path d="M54.0051 59.9995H2.95499C2.65948 59.9995 2.51172 59.7719 2.51172 59.4685C2.51172 59.1651 2.73335 58.9375 2.95499 58.9375H54.0051C54.3006 58.9375 54.4483 59.1651 54.4483 59.4685C54.4483 59.7719 54.2267 59.9995 54.0051 59.9995Z" fill="#040926"/>
</svg>

<svg width="57" height="60" fill="none" xmlns="http://www.w3.org/2000/svg"><path d="M43.884 53.704H13.076c-.073 0-.221 0-.295-.076C4.802 48.167 0 39.065 0 29.204 0 13.123 12.781 0 28.443 0 44.18 0 56.886 13.123 56.886 29.204c0 9.86-4.802 18.963-12.78 24.424 0 .076-.074.076-.222.076zm-30.66-.986H43.81c7.683-5.234 12.264-14.033 12.264-23.514 0-15.55-12.338-28.218-27.557-28.218S.96 13.654.96 29.204c0 9.481 4.58 18.28 12.264 23.514z" fill="#040926"/><path d="M45.73 48.926h-34.5c-.296 0-.444-.228-.444-.531V35.424c0-.227.148-.38.296-.455l11.82-4.779c.148-.076.37 0 .517.076l4.876 4.779 5.246-4.855c.148-.152.295-.152.517-.076l11.82 4.779a.512.512 0 01.296.455V48.32c0 .38-.222.607-.443.607zm-33.983-.986h33.467V35.727l-11.304-4.55-5.393 4.93a.543.543 0 01-.665 0l-4.95-4.93-11.23 4.55V47.94h.075z" fill="#040926"/><path d="M39.894 48.926H17.066c-.296 0-.443-.228-.443-.531v-8.192c0-.304.221-.531.443-.531.295 0 .443.227.443.53v7.662h21.868v-7.661c0-.304.222-.531.443-.531.296 0 .444.227.444.53v8.193c.147.303-.074.531-.37.531zm-5.688-11.531H22.754c-.295 0-.443-.227-.443-.53v-6.22c0-.304.222-.532.443-.532.296 0 .444.228.444.531v5.765h10.416v-5.765c0-.303.222-.53.444-.53.295 0 .443.227.443.53v6.22c.148.304-.074.531-.295.531z" fill="#040926"/><path d="M30.216 41.416h-3.398c-.296 0-.444-.228-.444-.531v-4.096c0-.304.222-.531.444-.531h3.398c.296 0 .444.227.444.53v4.097c0 .38-.222.53-.444.53zm-2.955-.986H29.7v-3.11h-2.438v3.11z" fill="#C47A2D"/><path d="M31.62 48.926h-6.575a.557.557 0 01-.37-.152c-.074-.152-.148-.303-.074-.455l1.774-7.434c.073-.227.221-.38.443-.38h3.398c.222 0 .443.153.443.38l1.404 7.434c0 .151 0 .303-.074.379-.148.152-.221.228-.37.228zm-5.984-.986h5.393l-1.182-6.448h-2.66l-1.551 6.448z" fill="#C47A2D"/><path d="M28.665 28.066c-4.95 0-9.013-4.172-9.013-9.254s4.063-9.254 9.013-9.254 9.013 4.172 9.013 9.254c0 5.158-4.063 9.254-9.013 9.254zm0-17.522c-4.433 0-8.053 3.716-8.053 8.268 0 4.55 3.62 8.268 8.053 8.268 4.433 0 8.053-3.717 8.053-8.268 0-4.552-3.62-8.268-8.053-8.268z" fill="#040926"/><path d="M35.093 17.295c-2.217 0-4.36-.683-5.91-1.897-.222-.151-.222-.455-.075-.682.148-.228.444-.228.665-.076 1.773 1.365 4.507 1.972 7.019 1.517.295-.076.517.152.59.38.075.303-.147.53-.369.606-.665.076-1.256.152-1.92.152z" fill="#040926"/><path d="M24.158 17.142a10.38 10.38 0 01-3.768-.683c-.221-.075-.369-.379-.295-.606.074-.228.37-.38.59-.304a10.02 10.02 0 003.4.607c3.915 0 7.166-2.275 7.166-5.082 0-.303.221-.531.443-.531.295 0 .443.228.443.531.074 3.338-3.546 6.068-7.979 6.068zm29.847 39.976H2.955c-.296 0-.443-.228-.443-.531 0-.304.221-.531.443-.531h51.05c.296 0 .443.227.443.53 0 .304-.221.532-.443.532zm0 2.882H2.955c-.296 0-.443-.228-.443-.532 0-.303.221-.53.443-.53h51.05c.296 0 .443.227.443.53 0 .304-.221.531-.443.531z" fill="#040926"/></svg>
